X: 37780
T: Song For Selangor
R: waltz
M: 3/4
K: Bminor
B3 d ef|f3 a ed|e6|f2 B/c/d eA|B2 ed cA|B4BA|F4B/c/d|
B3 d ef|f3 a ed|e6|f2 B/c/d eA|B2 ed cA|B6-|B6||
B4 d/e/f|gf fe ed|e2f2g2|gf e/f/g fc|
A2 FA cd|B3d ef|f3a ed|e6-|e6|
f2 B/c/d eA|B2 ed cA|B6-|B6|
B4 d/e/f|gf fe ed|e2f2g2|gf e/f/g fc|
A2 FA cd|B3d ef|f3a ed|e6-|e6|
f2 B/c/d eA|B2 ed cA|G3A cd|e3F {G}FE|F2EA cd|B6-|B6||

